packages/ffe-icons/icons/open/300/sm/airline_seat_individual_suite.svg

<svg xmlns="http://www.w3.org/2000/svg" height="20" viewBox="0 -960 960 960" width="20"><path d="M839.231-308.001H120.769q-22.007 0-37.387-15.381-15.38-15.38-15.38-37.387v-265.23q0-11.05 7.418-18.525 7.418-7.475 18.384-7.475 10.966 0 18.581 7.475T120-625.999V-360h346.001v-239.231q0-22.007 15.38-37.387 15.38-15.381 37.388-15.381H768q51.749 0 87.874 36.125 36.125 36.125 36.125 87.874v167.231q0 22.007-15.381 37.387-15.38 15.381-37.387 15.381ZM517.999-360H840v-168q0-29.7-21.15-50.85Q797.7-600 768-600H517.999v240Zm0-240v240-240ZM288.045-425.694q42.647 0 72.454-29.852 29.807-29.853 29.807-72.499 0-42.647-29.852-72.454-29.853-29.807-72.499-29.807-42.647 0-72.454 29.852-29.807 29.853-29.807 72.499 0 42.647 29.852 72.454 29.853 29.807 72.499 29.807ZM288-477.692q-21.169 0-35.739-14.569-14.569-14.57-14.569-35.739 0-21.169 14.569-35.739 14.57-14.569 35.739-14.569 21.169 0 35.739 14.569 14.569 14.57 14.569 35.739 0 21.169-14.569 35.739-14.57 14.569-35.739 14.569ZM288-528Z"/></svg>

<svg xmlns="http://www.w3.org/2000/svg" height="20" viewBox="0 -960 960 960" width="20"><path d="M839.23-308H120.77q-22.01 0-37.39-15.38Q68-338.76 68-360.77V-626q0-11.05 7.42-18.52Q82.84-652 93.8-652q10.97 0 18.58 7.48Q120-637.05 120-626v266h346v-239.23q0-22.01 15.38-37.39Q496.76-652 518.77-652H768q51.75 0 87.87 36.13Q892-579.75 892-528v167.23q0 22.01-15.38 37.39Q861.24-308 839.23-308ZM518-360h322v-168q0-29.7-21.15-50.85Q797.7-600 768-600H518v240Zm0-240v240-240ZM288.05-425.69q42.64 0 72.45-29.86 29.81-29.85 29.81-72.5 0-42.64-29.86-72.45-29.85-29.81-72.5-29.81-42.64 0-72.45 29.86-29.81 29.85-29.81 72.5 0 42.64 29.86 72.45 29.85 29.81 72.5 29.81Zm-.05-52q-21.17 0-35.74-14.57T237.69-528q0-21.17 14.57-35.74T288-578.31q21.17 0 35.74 14.57T338.31-528q0 21.17-14.57 35.74T288-477.69Zm0-50.31Z"/></svg>
